images/50406967.svg

<?xml version="1.0" encoding="UTF-8"?>
<svg xmlns="http://www.w3.org/2000/svg" xmlns:xlink="http://www.w3.org/1999/xlink" width="300pt" height="300pt" viewBox="0 0 300 300" version="1.1">
<defs>
<g>
<symbol overflow="visible" id="glyph0-0">
<path style="stroke:none;" d="M 0.453125 1.59375 L 0.453125 -6.34375 L 4.953125 -6.34375 L 4.953125 1.59375 Z M 0.953125 1.09375 L 4.453125 1.09375 L 4.453125 -5.84375 L 0.953125 -5.84375 Z M 0.953125 1.09375 "/>
</symbol>
<symbol overflow="visible" id="glyph0-1">
<path style="stroke:none;" d="M 1.765625 -3.140625 L 1.765625 -0.734375 L 3.1875 -0.734375 C 3.664062 -0.734375 4.019531 -0.832031 4.25 -1.03125 C 4.476562 -1.226562 4.59375 -1.53125 4.59375 -1.9375 C 4.59375 -2.34375 4.476562 -2.644531 4.25 -2.84375 C 4.019531 -3.039062 3.664062 -3.140625 3.1875 -3.140625 Z M 1.765625 -5.828125 L 1.765625 -3.859375 L 3.078125 -3.859375 C 3.515625 -3.859375 3.835938 -3.9375 4.046875 -4.09375 C 4.265625 -4.257812 4.375 -4.507812 4.375 -4.84375 C 4.375 -5.175781 4.265625 -5.421875 4.046875 -5.578125 C 3.835938 -5.742188 3.515625 -5.828125 3.078125 -5.828125 Z M 0.890625 -6.5625 L 3.15625 -6.5625 C 3.832031 -6.5625 4.351562 -6.421875 4.71875 -6.140625 C 5.082031 -5.859375 5.265625 -5.457031 5.265625 -4.9375 C 5.265625 -4.539062 5.171875 -4.222656 4.984375 -3.984375 C 4.796875 -3.742188 4.519531 -3.59375 4.15625 -3.53125 C 4.59375 -3.4375 4.929688 -3.238281 5.171875 -2.9375 C 5.410156 -2.644531 5.53125 -2.28125 5.53125 -1.84375 C 5.53125 -1.25 5.332031 -0.789062 4.9375 -0.46875 C 4.539062 -0.15625 3.972656 0 3.234375 0 L 0.890625 0 Z M 0.890625 -6.5625 "/>
</symbol>
<symbol overflow="visible" id="glyph0-2">
<path style="stroke:none;" d="M 3.703125 -4.171875 C 3.609375 -4.222656 3.507812 -4.257812 3.40625 -4.28125 C 3.300781 -4.300781 3.179688 -4.3125 3.046875 -4.3125 C 2.585938 -4.3125 2.234375 -4.160156 1.984375 -3.859375 C 1.742188 -3.566406 1.625 -3.144531 1.625 -2.59375 L 1.625 0 L 0.8125 0 L 0.8125 -4.921875 L 1.625 -4.921875 L 1.625 -4.15625 C 1.800781 -4.457031 2.023438 -4.679688 2.296875 -4.828125 C 2.566406 -4.972656 2.894531 -5.046875 3.28125 -5.046875 C 3.34375 -5.046875 3.40625 -5.039062 3.46875 -5.03125 C 3.539062 -5.019531 3.617188 -5.007812 3.703125 -5 Z M 3.703125 -4.171875 "/>
</symbol>
<symbol overflow="visible" id="glyph0-3">
<path style="stroke:none;" d="M 3.546875 -5.953125 C 2.898438 -5.953125 2.382812 -5.710938 2 -5.234375 C 1.625 -4.753906 1.4375 -4.101562 1.4375 -3.28125 C 1.4375 -2.445312 1.625 -1.789062 2 -1.3125 C 2.382812 -0.832031 2.898438 -0.59375 3.546875 -0.59375 C 4.191406 -0.59375 4.703125 -0.832031 5.078125 -1.3125 C 5.453125 -1.789062 5.640625 -2.445312 5.640625 -3.28125 C 5.640625 -4.101562 5.453125 -4.753906 5.078125 -5.234375 C 4.703125 -5.710938 4.191406 -5.953125 3.546875 -5.953125 Z M 3.546875 -6.6875 C 4.460938 -6.6875 5.195312 -6.375 5.75 -5.75 C 6.300781 -5.132812 6.578125 -4.3125 6.578125 -3.28125 C 6.578125 -2.238281 6.300781 -1.410156 5.75 -0.796875 C 5.195312 -0.179688 4.460938 0.125 3.546875 0.125 C 2.617188 0.125 1.878906 -0.179688 1.328125 -0.796875 C 0.773438 -1.410156 0.5 -2.238281 0.5 -3.28125 C 0.5 -4.3125 0.773438 -5.132812 1.328125 -5.75 C 1.878906 -6.375 2.617188 -6.6875 3.546875 -6.6875 Z M 3.546875 -6.6875 "/>
</symbol>
<symbol overflow="visible" id="glyph0-4">
<path style="stroke:none;" d="M 0.890625 -6.5625 L 2.078125 -6.5625 L 4.984375 -1.078125 L 4.984375 -6.5625 L 5.84375 -6.5625 L 5.84375 0 L 4.65625 0 L 1.75 -5.484375 L 1.75 0 L 0.890625 0 Z M 0.890625 -6.5625 "/>
</symbol>
<symbol overflow="visible" id="glyph0-5">
<path style="stroke:none;" d="M 0.890625 -6.5625 L 1.765625 -6.5625 L 1.765625 -3.875 L 5 -3.875 L 5 -6.5625 L 5.890625 -6.5625 L 5.890625 0 L 5 0 L 5 -3.125 L 1.765625 -3.125 L 1.765625 0 L 0.890625 0 Z M 0.890625 -6.5625 "/>
</symbol>
</g>
</defs>
<g id="surface11045">
<rect x="0" y="0" width="300" height="300" style="fill:rgb(100%,100%,100%);fill-opacity:1;stroke:none;"/>
<path style="fill:none;stroke-width:1.2;stroke-linecap:butt;stroke-linejoin:miter;stroke:rgb(50%,30%,10%);stroke-opacity:1;stroke-miterlimit:10;" d="M 35.25 185.464844 L 45.523438 179.292969 "/>
<path style="fill:none;stroke-width:1.2;stroke-linecap:butt;stroke-linejoin:miter;stroke:rgb(0%,0%,0%);stroke-opacity:1;stroke-miterlimit:10;" d="M 45.523438 179.292969 L 55.796875 173.121094 "/>
<path style=" stroke:none;fill-rule:nonzero;fill:rgb(100%,100%,100%);fill-opacity:1;" d="M 24.25 179.964844 L 35.25 179.964844 L 35.25 190.964844 L 24.25 190.964844 Z M 24.25 179.964844 "/>
<g style="fill:rgb(50%,30%,10%);fill-opacity:1;">
  <use xlink:href="#glyph0-1" x="24.25" y="188.62793"/>
  <use xlink:href="#glyph0-2" x="30.649414" y="188.62793"/>
</g>
<path style="fill:none;stroke-width:1.2;stroke-linecap:butt;stroke-linejoin:miter;stroke:rgb(0%,0%,0%);stroke-opacity:1;stroke-miterlimit:10;" d="M 55.796875 173.121094 L 55.378906 149.15625 "/>
<path style="fill:none;stroke-width:1.2;stroke-linecap:butt;stroke-linejoin:miter;stroke:rgb(0%,0%,0%);stroke-opacity:1;stroke-miterlimit:10;" d="M 61.394531 170.625 L 61.058594 151.453125 "/>
<path style="fill:none;stroke-width:1.2;stroke-linecap:butt;stroke-linejoin:miter;stroke:rgb(0%,0%,0%);stroke-opacity:1;stroke-miterlimit:10;" d="M 76.761719 184.742188 L 55.796875 173.121094 "/>
<path style="fill:none;stroke-width:1.2;stroke-linecap:butt;stroke-linejoin:miter;stroke:rgb(0%,0%,0%);stroke-opacity:1;stroke-miterlimit:10;" d="M 55.378906 149.15625 L 75.925781 136.8125 "/>
<path style="fill:none;stroke-width:1.2;stroke-linecap:butt;stroke-linejoin:miter;stroke:rgb(0%,0%,0%);stroke-opacity:1;stroke-miterlimit:10;" d="M 75.925781 136.8125 L 96.890625 148.433594 "/>
<path style="fill:none;stroke-width:1.2;stroke-linecap:butt;stroke-linejoin:miter;stroke:rgb(0%,0%,0%);stroke-opacity:1;stroke-miterlimit:10;" d="M 75.285156 142.90625 L 92.058594 152.203125 "/>
<path style="fill:none;stroke-width:1.2;stroke-linecap:butt;stroke-linejoin:miter;stroke:rgb(0%,0%,0%);stroke-opacity:1;stroke-miterlimit:10;" d="M 96.890625 148.433594 L 97.304688 172.398438 "/>
<path style="fill:none;stroke-width:1.2;stroke-linecap:butt;stroke-linejoin:miter;stroke:rgb(0%,0%,0%);stroke-opacity:1;stroke-miterlimit:10;" d="M 96.890625 148.433594 L 117.433594 136.089844 "/>
<path style="fill:none;stroke-width:1.2;stroke-linecap:butt;stroke-linejoin:miter;stroke:rgb(0%,0%,0%);stroke-opacity:1;stroke-miterlimit:10;" d="M 97.304688 172.398438 L 76.761719 184.742188 "/>
<path style="fill:none;stroke-width:1.2;stroke-linecap:butt;stroke-linejoin:miter;stroke:rgb(0%,0%,0%);stroke-opacity:1;stroke-miterlimit:10;" d="M 92.347656 168.796875 L 75.910156 178.675781 "/>
<path style="fill:none;stroke-width:1.2;stroke-linecap:butt;stroke-linejoin:miter;stroke:rgb(0%,0%,0%);stroke-opacity:1;stroke-miterlimit:10;" d="M 120.253906 136.039062 L 120.046875 124.054688 "/>
<path style="fill:none;stroke-width:1.2;stroke-linecap:butt;stroke-linejoin:miter;stroke:rgb(100%,0%,0%);stroke-opacity:1;stroke-miterlimit:10;" d="M 120.046875 124.054688 L 119.835938 112.074219 "/>
<path style="fill:none;stroke-width:1.2;stroke-linecap:butt;stroke-linejoin:miter;stroke:rgb(0%,0%,0%);stroke-opacity:1;stroke-miterlimit:10;" d="M 114.617188 136.136719 L 114.40625 124.15625 "/>
<path style="fill:none;stroke-width:1.2;stroke-linecap:butt;stroke-linejoin:miter;stroke:rgb(100%,0%,0%);stroke-opacity:1;stroke-miterlimit:10;" d="M 114.40625 124.15625 L 114.199219 112.171875 "/>
<path style="fill:none;stroke-width:1.2;stroke-linecap:butt;stroke-linejoin:miter;stroke:rgb(0%,0%,0%);stroke-opacity:1;stroke-miterlimit:10;" d="M 117.433594 136.089844 L 127.917969 141.898438 "/>
<path style="fill:none;stroke-width:1.2;stroke-linecap:butt;stroke-linejoin:miter;stroke:rgb(0%,0%,100%);stroke-opacity:1;stroke-miterlimit:10;" d="M 127.917969 141.898438 L 138.398438 147.710938 "/>
<path style=" stroke:none;fill-rule:nonzero;fill:rgb(100%,100%,100%);fill-opacity:1;" d="M 113.019531 106.621094 L 121.019531 106.621094 L 121.019531 117.621094 L 113.019531 117.621094 Z M 113.019531 106.621094 "/>
<g style="fill:rgb(100%,0%,0%);fill-opacity:1;">
  <use xlink:href="#glyph0-3" x="113.019531" y="115.28418"/>
</g>
<path style="fill:none;stroke-width:1.2;stroke-linecap:butt;stroke-linejoin:miter;stroke:rgb(0%,0%,100%);stroke-opacity:1;stroke-miterlimit:10;" d="M 138.398438 147.710938 L 148.671875 141.539062 "/>
<path style="fill:none;stroke-width:1.2;stroke-linecap:butt;stroke-linejoin:miter;stroke:rgb(0%,0%,0%);stroke-opacity:1;stroke-miterlimit:10;" d="M 148.671875 141.539062 L 158.945312 135.363281 "/>
<path style=" stroke:none;fill-rule:nonzero;fill:rgb(100%,100%,100%);fill-opacity:1;" d="M 131.398438 142.210938 L 145.398438 142.210938 L 145.398438 153.210938 L 131.398438 153.210938 Z M 131.398438 142.210938 "/>
<g style="fill:rgb(0%,0%,100%);fill-opacity:1;">
  <use xlink:href="#glyph0-4" x="131.398438" y="150.874023"/>
  <use xlink:href="#glyph0-5" x="138.375977" y="150.874023"/>
</g>
<path style="fill:none;stroke-width:1.2;stroke-linecap:butt;stroke-linejoin:miter;stroke:rgb(0%,0%,0%);stroke-opacity:1;stroke-miterlimit:10;" d="M 158.945312 135.363281 L 159.992188 123.425781 "/>
<path style="fill:none;stroke-width:1.2;stroke-linecap:butt;stroke-linejoin:miter;stroke:rgb(0%,0%,100%);stroke-opacity:1;stroke-miterlimit:10;" d="M 159.992188 123.425781 L 161.035156 111.488281 "/>
<path style="fill:none;stroke-width:1.2;stroke-linecap:butt;stroke-linejoin:miter;stroke:rgb(0%,0%,0%);stroke-opacity:1;stroke-miterlimit:10;" d="M 164.773438 133.46875 L 165.609375 123.917969 "/>
<path style="fill:none;stroke-width:1.2;stroke-linecap:butt;stroke-linejoin:miter;stroke:rgb(0%,0%,100%);stroke-opacity:1;stroke-miterlimit:10;" d="M 165.609375 123.917969 L 166.445312 114.367188 "/>
<path style="fill:none;stroke-width:1.2;stroke-linecap:butt;stroke-linejoin:miter;stroke:rgb(0%,0%,0%);stroke-opacity:1;stroke-miterlimit:10;" d="M 181.007812 144.730469 L 158.945312 135.363281 "/>
<path style="fill:none;stroke-width:1.2;stroke-linecap:butt;stroke-linejoin:miter;stroke:rgb(0%,0%,100%);stroke-opacity:1;stroke-miterlimit:10;" d="M 161.035156 111.488281 L 184.390625 106.097656 "/>
<path style=" stroke:none;fill-rule:nonzero;fill:rgb(100%,100%,100%);fill-opacity:1;" d="M 158.035156 105.988281 L 165.035156 105.988281 L 165.035156 116.988281 L 158.035156 116.988281 Z M 158.035156 105.988281 "/>
<g style="fill:rgb(0%,0%,100%);fill-opacity:1;">
  <use xlink:href="#glyph0-4" x="158.035156" y="114.651367"/>
</g>
<path style="fill:none;stroke-width:1.2;stroke-linecap:butt;stroke-linejoin:miter;stroke:rgb(0%,0%,100%);stroke-opacity:1;stroke-miterlimit:10;" d="M 184.390625 106.097656 L 190.5625 116.367188 "/>
<path style="fill:none;stroke-width:1.2;stroke-linecap:butt;stroke-linejoin:miter;stroke:rgb(0%,0%,0%);stroke-opacity:1;stroke-miterlimit:10;" d="M 190.5625 116.367188 L 196.734375 126.640625 "/>
<path style=" stroke:none;fill-rule:nonzero;fill:rgb(100%,100%,100%);fill-opacity:1;" d="M 177.390625 100.597656 L 191.390625 100.597656 L 191.390625 111.597656 L 177.390625 111.597656 Z M 177.390625 100.597656 "/>
<g style="fill:rgb(0%,0%,100%);fill-opacity:1;">
  <use xlink:href="#glyph0-4" x="177.390625" y="109.260742"/>
  <use xlink:href="#glyph0-5" x="184.368164" y="109.260742"/>
</g>
<path style="fill:none;stroke-width:1.2;stroke-linecap:butt;stroke-linejoin:miter;stroke:rgb(0%,0%,0%);stroke-opacity:1;stroke-miterlimit:10;" d="M 196.734375 126.640625 L 181.007812 144.730469 "/>
<path style="fill:none;stroke-width:1.2;stroke-linecap:butt;stroke-linejoin:miter;stroke:rgb(0%,0%,0%);stroke-opacity:1;stroke-miterlimit:10;" d="M 190.90625 124.75 L 178.324219 139.222656 "/>
<path style="fill:none;stroke-width:1.2;stroke-linecap:butt;stroke-linejoin:miter;stroke:rgb(0%,0%,0%);stroke-opacity:1;stroke-miterlimit:10;" d="M 196.734375 126.640625 L 220.613281 128.730469 "/>
<path style="fill:none;stroke-width:1.2;stroke-linecap:butt;stroke-linejoin:miter;stroke:rgb(0%,0%,0%);stroke-opacity:1;stroke-miterlimit:10;" d="M 220.613281 128.730469 L 230.742188 150.457031 "/>
<path style="fill:none;stroke-width:1.2;stroke-linecap:butt;stroke-linejoin:miter;stroke:rgb(0%,0%,0%);stroke-opacity:1;stroke-miterlimit:10;" d="M 230.742188 150.457031 L 216.992188 170.089844 "/>
<path style="fill:none;stroke-width:1.2;stroke-linecap:butt;stroke-linejoin:miter;stroke:rgb(0%,0%,0%);stroke-opacity:1;stroke-miterlimit:10;" d="M 233.988281 155.65625 L 222.988281 171.363281 "/>
<path style="fill:none;stroke-width:1.2;stroke-linecap:butt;stroke-linejoin:miter;stroke:rgb(0%,0%,0%);stroke-opacity:1;stroke-miterlimit:10;" d="M 254.621094 152.546875 L 230.742188 150.457031 "/>
<path style="fill:none;stroke-width:1.2;stroke-linecap:butt;stroke-linejoin:miter;stroke:rgb(0%,0%,0%);stroke-opacity:1;stroke-miterlimit:10;" d="M 216.992188 170.089844 L 227.121094 191.8125 "/>
<path style="fill:none;stroke-width:1.2;stroke-linecap:butt;stroke-linejoin:miter;stroke:rgb(0%,0%,0%);stroke-opacity:1;stroke-miterlimit:10;" d="M 227.121094 191.8125 L 251 193.902344 "/>
<path style="fill:none;stroke-width:1.2;stroke-linecap:butt;stroke-linejoin:miter;stroke:rgb(0%,0%,0%);stroke-opacity:1;stroke-miterlimit:10;" d="M 230.003906 186.40625 L 249.105469 188.078125 "/>
<path style="fill:none;stroke-width:1.2;stroke-linecap:butt;stroke-linejoin:miter;stroke:rgb(0%,0%,0%);stroke-opacity:1;stroke-miterlimit:10;" d="M 251 193.902344 L 264.75 174.269531 "/>
<path style="fill:none;stroke-width:1.2;stroke-linecap:butt;stroke-linejoin:miter;stroke:rgb(0%,0%,0%);stroke-opacity:1;stroke-miterlimit:10;" d="M 264.75 174.269531 L 254.621094 152.546875 "/>
<path style="fill:none;stroke-width:1.2;stroke-linecap:butt;stroke-linejoin:miter;stroke:rgb(0%,0%,0%);stroke-opacity:1;stroke-miterlimit:10;" d="M 258.625 174.480469 L 250.523438 157.101562 "/>
</g>
</svg>

<svg xmlns="http://www.w3.org/2000/svg" xmlns:xlink="http://www.w3.org/1999/xlink" width="300pt" height="300pt" viewBox="0 0 300 300"><defs><symbol overflow="visible"><path d="M.453 1.594v-7.938h4.5v7.938zm.5-.5h3.5v-6.938h-3.5zm0 0"/></symbol><symbol overflow="visible" id="a"><path d="M1.766-3.14v2.406h1.421c.477 0 .833-.098 1.063-.297.227-.197.344-.5.344-.907 0-.407-.117-.708-.344-.907-.23-.195-.586-.297-1.063-.297zm0-2.688v1.97h1.312c.438 0 .758-.08.97-.236.218-.164.327-.414.327-.75 0-.332-.11-.578-.328-.734-.21-.164-.53-.25-.97-.25zM.89-6.562h2.266c.676 0 1.196.14 1.563.42.362.283.546.685.546 1.205 0 .398-.094.714-.282.953-.187.242-.464.39-.828.453.438.092.774.292 1.016.592.238.293.36.657.36 1.094 0 .594-.2 1.055-.595 1.375-.398.314-.964.47-1.703.47H.89zm0 0"/></symbol><symbol overflow="visible" id="b"><path d="M3.703-4.172c-.094-.05-.195-.086-.297-.11-.105-.02-.226-.03-.36-.03-.46 0-.812.152-1.062.453-.242.294-.36.715-.36 1.266V0H.813v-4.922h.813v.766c.176-.3.398-.524.672-.672.27-.145.598-.22.984-.22.064 0 .126.01.19.017.07.01.147.022.233.03zm0 0"/></symbol><symbol overflow="visible" id="c"><path d="M3.547-5.953c-.65 0-1.164.242-1.547.72-.375.48-.563 1.13-.563 1.952 0 .835.188 1.49.563 1.967.383.48.898.72 1.547.72.644 0 1.156-.24 1.53-.72.376-.476.564-1.132.564-1.968 0-.822-.187-1.474-.562-1.954-.375-.477-.887-.72-1.53-.72zm0-.734c.914 0 1.648.312 2.203.937.55.617.828 1.438.828 2.47 0 1.042-.277 1.87-.828 2.483-.555.617-1.29.922-2.203.922-.93 0-1.668-.305-2.22-.922C.774-1.41.5-2.237.5-3.28c0-1.033.273-1.853.828-2.47.55-.625 1.29-.938 2.22-.938zm0 0"/></symbol><symbol overflow="visible" id="d"><path d="M.89-6.563H2.08l2.906 5.485v-5.484h.86V0H4.656L1.75-5.484V0H.89zm0 0"/></symbol><symbol overflow="visible" id="e"><path d="M.89-6.563h.876v2.688H5v-2.688h.89V0H5v-3.125H1.766V0H.89zm0 0"/></symbol></defs><g><path fill="#fff" d="M0 0h300v300H0z"/><path d="M35.25 185.465l10.273-6.172" stroke-width="1.2" stroke="#7f4d1a" stroke-miterlimit="10" fill="none"/><path d="M45.523 179.293l10.274-6.172" stroke-width="1.2" stroke="#000" stroke-miterlimit="10" fill="none"/><path d="M24.25 179.965h11v11h-11zm0 0" fill="#fff"/><g fill="#7f4d1a"><use xlink:href="#a" x="24.25" y="188.628"/><use xlink:href="#b" x="30.649" y="188.628"/></g><path d="M55.797 173.12l-.418-23.964M61.395 170.625l-.336-19.172M76.762 184.742l-20.965-11.62M55.38 149.156l20.546-12.344M75.926 136.813l20.965 11.62M75.285 142.906l16.774 9.297M96.89 148.434l.415 23.964M96.89 148.434l20.544-12.344M97.305 172.398l-20.543 12.344M92.348 168.797l-16.438 9.88M120.254 136.04l-.207-11.985" stroke-width="1.2" stroke="#000" stroke-miterlimit="10" fill="none"/><path d="M120.047 124.055l-.21-11.98" stroke-width="1.2" stroke="#f00" stroke-miterlimit="10" fill="none"/><path d="M114.617 136.137l-.21-11.98" stroke-width="1.2" stroke="#000" stroke-miterlimit="10" fill="none"/><path d="M114.406 124.156l-.207-11.984" stroke-width="1.2" stroke="#f00" stroke-miterlimit="10" fill="none"/><path d="M117.434 136.09l10.484 5.808" stroke-width="1.2" stroke="#000" stroke-miterlimit="10" fill="none"/><path d="M127.918 141.898l10.48 5.813" stroke-width="1.2" stroke="#00f" stroke-miterlimit="10" fill="none"/><path d="M113.02 106.62h8v11h-8zm0 0" fill="#fff"/><use xlink:href="#c" x="113.02" y="115.284" fill="#f00"/><path d="M138.398 147.71l10.274-6.17" stroke-width="1.2" stroke="#00f" stroke-miterlimit="10" fill="none"/><path d="M148.672 141.54l10.273-6.177" stroke-width="1.2" stroke="#000" stroke-miterlimit="10" fill="none"/><path d="M131.398 142.21h14v11h-14zm0 0" fill="#fff"/><g fill="#00f"><use xlink:href="#d" x="131.398" y="150.874"/><use xlink:href="#e" x="138.376" y="150.874"/></g><path d="M158.945 135.363l1.047-11.937" stroke-width="1.2" stroke="#000" stroke-miterlimit="10" fill="none"/><path d="M159.992 123.426l1.043-11.938" stroke-width="1.2" stroke="#00f" stroke-miterlimit="10" fill="none"/><path d="M164.773 133.47l.836-9.552" stroke-width="1.2" stroke="#000" stroke-miterlimit="10" fill="none"/><path d="M165.61 123.918l.835-9.55" stroke-width="1.2" stroke="#00f" stroke-miterlimit="10" fill="none"/><path d="M181.008 144.73l-22.063-9.367" stroke-width="1.2" stroke="#000" stroke-miterlimit="10" fill="none"/><path d="M161.035 111.488l23.356-5.39" stroke-width="1.2" stroke="#00f" stroke-miterlimit="10" fill="none"/><path d="M158.035 105.988h7v11h-7zm0 0" fill="#fff"/><use xlink:href="#d" x="158.035" y="114.651" fill="#00f"/><path d="M184.39 106.098l6.173 10.27" stroke-width="1.2" stroke="#00f" stroke-miterlimit="10" fill="none"/><path d="M190.563 116.367l6.17 10.274" stroke-width="1.2" stroke="#000" stroke-miterlimit="10" fill="none"/><path d="M177.39 100.598h14v11h-14zm0 0" fill="#fff"/><g fill="#00f"><use xlink:href="#d" x="177.391" y="109.261"/><use xlink:href="#e" x="184.368" y="109.261"/></g><path d="M196.734 126.64l-15.726 18.09M190.906 124.75l-12.582 14.473M196.734 126.64l23.88 2.09M220.613 128.73l10.13 21.727M230.742 150.457l-13.75 19.633M233.988 155.656l-11 15.707M254.62 152.547l-23.878-2.09M216.992 170.09l10.13 21.722M227.12 191.813l23.88 2.09M230.004 186.406l19.1 1.672M251 193.902l13.75-19.632M264.75 174.27l-10.13-21.723M258.625 174.48l-8.102-17.378" stroke-width="1.2" stroke="#000" stroke-miterlimit="10" fill="none"/></g></svg>
